X:1
T:Wartburg Castle, LM
T:Wartburg Castle, LM
T:George Wolfe Shinn (1839-1910)
T:Public Domain Courtesy of the Cyber Hymnal™
C:George Wolfe Shinn (1839-1910)
Z:Public Domain
Z:Courtesy of the Cyber Hymnal™
%%score ( 1 2 ) ( 3 4 )
L:1/8
Q:1/4=115
M:3/4
K:Ab
V:1 treble 
V:2 treble 
V:3 bass 
V:4 bass 
V:1
 [CE]2 [DF]2 [CE]2 | [Ec]4 [DB]2 | (A2 G2) [DF]2 | E6 | [CE]2 F2 [EG]2 | (A3 G) [EA]2 | %6
 (c2 B2) [_DA]2 | (G2 F2 E2) | [CE]2 [CE]2 E2 | F4 F2 | (G2 A2) [GB]2 | ([GB]4 [FA]2) | %12
 [GB]2 [Ac]2 [Gd]2 | ([Gf]2 [Ae]2) A2 | (d2 c2) [GB]2 | A6 |] %16
V:2
 x6 | x6 | D4 x2 | (D2 C2 B,2) | x2 F2 x2 | E4 x2 | =D4 x2 | D6 | x4 E2 | (E2 D2) F2 | =E4 x2 | %11
 x6 | x6 | x4 A2 | A4 x2 | A6 |] %16
V:3
 [A,,A,]2 [A,,A,]2 [A,,A,]2 | [A,,A,]4 [A,,G,]2 | [A,,B,]4 [A,,B,]2 | (B,2 A,2 G,2) | %4
 [A,,A,]2 [A,,D]2 [A,,D]2 | [C,C]4 [F,A,]2 | [B,,A,]4 [B,,B,]2 | (B,2 A,2 G,2) | %8
 [A,,A,]2 [A,,A,]2 [C,A,]2 | [D,A,]4 [D,A,]2 | (B,2 A,2) [=E,G,]2 | [F,C]6 | %12
 [E,D]2 [E,C]2 [E,B,]2 | (D2 C2) [F,C]2 | ([B,,F]2 [E,E]2) [E,D]2 | [A,,C]6 |] %16
V:4
 x6 | x6 | x6 | A,,6 | x6 | x6 | x6 | E,6 | x6 | x6 | C,4 x2 | x6 | x6 | E,4 x2 | x6 | x6 |] %16

